packages/icons/svg/Fill/image.svg

<svg fill="none" height="24" viewBox="0 0 24 24" width="24" xmlns="http://www.w3.org/2000/svg"><path clip-rule="evenodd" d="m19 17.8342c0 .644-.448 1.166-1 1.166h-12l7.566-6.817c.246-.245.692-.244.933-.001l4.501 4.478zm-10.99998-10.83427c.828 0 1.5.672 1.5 1.5s-.672 1.5-1.5 1.5-1.5-.672-1.5-1.5.672-1.5 1.5-1.5zm9.99998-3.99993h-12c-1.654 0-3 1.346-3 3v12c0 1.654 1.346 3 3 3h12c1.654 0 3-1.346 3-3v-12c0-1.654-1.346-3-3-3z" fill="#6b7280" fill-rule="evenodd"/></svg>

<svg width="24" height="24" viewBox="0 0 24 24" fill="none" xmlns="http://www.w3.org/2000/svg">
<g id="Icon/Fill/image">
<path id="Mask" fill-rule="evenodd" clip-rule="evenodd" d="M19 17.834C19 18.478 18.552 19 18 19H6L13.566 12.183C13.812 11.938 14.258 11.939 14.499 12.182L19 16.66V17.834ZM8 7C8.828 7 9.5 7.672 9.5 8.5C9.5 9.328 8.828 10 8 10C7.172 10 6.5 9.328 6.5 8.5C6.5 7.672 7.172 7 8 7ZM18 3H6C4.346 3 3 4.346 3 6V18C3 19.654 4.346 21 6 21H18C19.654 21 21 19.654 21 18V6C21 4.346 19.654 3 18 3Z" fill="#000000"/>
</g>
</svg>
